!!!SOCIAL_FUNCTION:	miscellaneous songs
!!!PDT:	1918

Specific Region: Dakotas, Minnesota, Montana, Nebraska
!!!REG: Dakotas and Montana
!!!LING_GROUP: Siouan
!!!LANG: Tone
!!!OTL@ENG: You Have Relied Upon Me
!!!ONM: No. 235
**kern
*Imale
*clefF4
*k[b-e-]
*M3/4
*MM96
8g
8g
4g
8.g
16d
=1||
*M2/4
8g
8g
4g
=2
16g
8.d
8d
8c
=3
8c
8B-
8B-
8B-
=4||
*M3/4
2.B-
=5
16B-
16B-
8d
8d
8d
8.d
16c#
=6
16d
8.d
16.d
32B-
8B-
8c#
16.B-
32B-
=7||
*M2/4
4G
8G
8G
=8||
*M3/4
2.G
=9
8B-
8c
8c
8B-
4B-
=10||
*M2/4
16G
8.B-
8c
8B-
=11
16B-
8.G
8G
8G
=12
2G
=13
4.G
8G
=14
8G
8g
8g
8g
=15
4.g
8d
=16
8g
8g
4g
=17
16g
8.d
8d
8c
=18
16d
8B-
16c
4B-
=19||
*M3/4
8B-
16B-
16B-
16B-
8.G
8G
8G
=20
2.G
=21
8B-
8B-
8c
8c
4B-
=22
8B-
16B-
16B-
8G
8B-
8c
8B-
=23||
*M2/4
16B-
8.G
8G
8G
=24
2G
=25
2G
==
*-
!!!CNT: Native American -- Sioux
!!!MRD: 1911/07//-1914///
!!!OCL: Frances Densmore
!!!YOR1: Teton Sioux Music, Bulletin 61,
!!!YOR2: Bureau of American Ethnology, Smithsonian Institution
!!!PPR: Government Printing Office
!!!PPP: Washington, D.C.
!!!PDT: 1918///
!!!ENC: Craig Stuart Sapp
!!!END: 2002/03/25/
!!!EEV: 2002/03/31/
!!!AGN: Sisseton Song
!!!MPN@@SIO: Mato'-ite'-wakang
!!!MPN@ENG: Holy-Face Bear
!!!TXO: Santee Sioux
!!!MLC: Sisseton, South Dakota, United States of America
!!!ARL: 45.6/-97.1:
!!!catalog: Catalogue No. 645
!!!PPG: 513
!!!EFL: 240/245
!!!VTS: 1051150348
